X:17
T:Cuckoo's Nest #2
S:Bernie Waugh
R:Reel
M:4/4
L:1/8
K:D
|:FG|\
"D"AFDF AFDF|"A"AGFE "D"D2(3DEF|"C"GE=CE GECE|"Am"GFED "C"=C2AG|
"D"FDDC DFAd|fdAF "Em"G2FG|"Bm"AFDB, "C"=CDEG|"D"FD2D D2:|
|:(3ABc|\
"D"d2dc dfed|"A"~cAA^G A2AB|"C"=c2cB cedc|"G"~BGGF G2AG|
"D"FDDC DFAd|fdAF "Em"G2FG|"Bm"AFDB, "C"=CDEG|"D"FD2D D2:|

